public/avatar/hat/57.svg

<svg xmlns:xlink="http://www.w3.org/1999/xlink" height="92.9" width="100.7" xmlns="http://www.w3.org/2000/svg"><use height="23.25" transform="translate(25.55 35.95)" width="26.1" xlink:href="#a"/><defs><g id="a"><path d="m5-13.2.75-.1q1.6 0 2.75 1.1l.4.55.45 1.85V2.1l1.55 1.75q1.85 2.3 1.55 5.1Q9.6 7.8 6.8 7.2l-.3-.15q-.5-2.4-1.8-3.4l.6-.75.7-1.2q.45-1.65.5-3.55v-7.5q.05-2.1-1.5-3.85m-12.55.2 1.55-.3q1.6 0 2.6.95.9.85 1.2 3v8l3.55.15.6.05V0l.85 1.9-1.35-.15-3.65-.25-.6.65Q-4.4 3.4-6.55 3.4-5.5 2.5-5.3.9q.2-1.9.1-3.75-.05-1.95.25-3.75.3-1.9-.1-3.75-.45-2-2.5-2.65M-2.2 0v-1.35V0" fill="#900" fill-rule="evenodd" transform="translate(13.1 13.8)"/><path d="M5-13.2q1.55 1.75 1.5 3.85v7.5Q6.45.05 6 1.7l-.7 1.2-.6.75q1.3 1 1.8 3.4v.05Q-3.55 4.85-12.6 8.95l.65-2.7q.7-2.1 2.1-3.8V-3.7l-.05-6.15.25-.85q.6-1.6 2.1-2.3 2.05.65 2.5 2.65.4 1.85.1 3.75-.3 1.8-.25 3.75Q-5.1-1-5.3.9q-.2 1.6-1.25 2.5 2.15 0 3.75-1.25l.6-.65 3.65.25 1.35.15L1.95 0v-9.55q.2-1.75 1.1-2.65.85-.85 1.95-1M-9.8 3.6l-.05-1.15.05 1.15" fill="#c00" fill-rule="evenodd" transform="translate(13.1 13.8)"/><path d="m6.5 7.05.3.15-.3-.1v-.05" fill="#f39" fill-rule="evenodd" transform="translate(13.1 13.8)"/><path d="M6.8 7.2q2.8.6 5.65 1.75.3-2.8-1.55-5.1L9.35 2.1V-9.8l-.45-1.85-.4-.55q-1.15-1.1-2.75-1.1l-.75.1q-1.1.15-1.95 1-.9.9-1.1 2.65V0M6.5 7.1Q-3.55 4.85-12.6 8.95l.65-2.7q.7-2.1 2.1-3.8V-3.7l-.05-6.15.25-.85q.6-1.6 2.1-2.3l1.55-.3q1.6 0 2.6.95.9.85 1.2 3v8l3.55.15.6.05m-11.8 3.6.05 1.15m7.6-4.95V0" fill="none" stroke="#600" stroke-linecap="round" stroke-linejoin="round" transform="translate(13.1 13.8)"/></g></defs></svg>

<?xml version="1.0" encoding="UTF-8" standalone="no"?>
<svg xmlns:xlink="http://www.w3.org/1999/xlink" height="92.9px" width="100.7px" xmlns="http://www.w3.org/2000/svg">
  <g transform="matrix(1.0, 0.0, 0.0, 1.0, 38.65, 49.75)">
    <use height="23.25" transform="matrix(1.0, 0.0, 0.0, 1.0, -13.1, -13.8)" width="26.1" xlink:href="#shape0"/>
  </g>
  <defs>
    <g id="shape0" transform="matrix(1.0, 0.0, 0.0, 1.0, 13.1, 13.8)">
      <path d="M5.0 -13.2 L5.75 -13.3 Q7.35 -13.3 8.5 -12.2 L8.9 -11.65 9.35 -9.8 9.35 2.1 10.9 3.85 Q12.75 6.15 12.45 8.95 9.6 7.8 6.8 7.2 L6.5 7.05 Q6.0 4.65 4.7 3.65 L5.3 2.9 6.0 1.7 Q6.45 0.05 6.5 -1.85 L6.5 -5.5 6.5 -9.35 Q6.55 -11.45 5.0 -13.2 M-7.55 -13.0 L-6.0 -13.3 Q-4.4 -13.3 -3.4 -12.35 -2.5 -11.5 -2.2 -9.35 L-2.2 -1.35 1.35 -1.2 1.95 -1.15 1.95 0.0 2.8 1.9 1.45 1.75 -2.2 1.5 -2.8 2.15 Q-4.4 3.4 -6.55 3.4 -5.5 2.5 -5.3 0.9 -5.1 -1.0 -5.2 -2.85 -5.25 -4.8 -4.95 -6.6 -4.65 -8.5 -5.05 -10.35 -5.5 -12.35 -7.55 -13.0 M-2.2 0.0 L-2.2 -1.35 -2.2 0.0" fill="#990000" fill-rule="evenodd" stroke="none"/>
      <path d="M5.0 -13.2 Q6.55 -11.45 6.5 -9.35 L6.5 -5.5 6.5 -1.85 Q6.45 0.05 6.0 1.7 L5.3 2.9 4.7 3.65 Q6.0 4.65 6.5 7.05 L6.5 7.1 Q-3.55 4.85 -12.6 8.95 L-11.95 6.25 Q-11.25 4.15 -9.85 2.45 L-9.85 -3.7 -9.9 -9.85 -9.65 -10.7 Q-9.05 -12.3 -7.55 -13.0 -5.5 -12.35 -5.05 -10.35 -4.65 -8.5 -4.95 -6.6 -5.25 -4.8 -5.2 -2.85 -5.1 -1.0 -5.3 0.9 -5.5 2.5 -6.55 3.4 -4.4 3.4 -2.8 2.15 L-2.2 1.5 1.45 1.75 2.8 1.9 1.95 0.0 1.95 -1.15 1.95 -9.55 Q2.15 -11.3 3.05 -12.2 3.9 -13.05 5.0 -13.2 M-9.8 3.6 L-9.85 2.45 -9.8 3.6" fill="#cc0000" fill-rule="evenodd" stroke="none"/>
      <path d="M6.5 7.05 L6.8 7.2 6.5 7.1 6.5 7.05" fill="#ff3399" fill-rule="evenodd" stroke="none"/>
      <path d="M6.8 7.2 Q9.6 7.8 12.45 8.95 12.75 6.15 10.9 3.85 L9.35 2.1 9.35 -9.8 8.9 -11.65 8.5 -12.2 Q7.35 -13.3 5.75 -13.3 L5.0 -13.2 Q3.9 -13.05 3.05 -12.2 2.15 -11.3 1.95 -9.55 L1.95 -1.15 1.95 0.0 M6.5 7.1 Q-3.55 4.85 -12.6 8.95 L-11.95 6.25 Q-11.25 4.15 -9.85 2.45 L-9.85 -3.7 -9.9 -9.85 -9.65 -10.7 Q-9.05 -12.3 -7.55 -13.0 L-6.0 -13.3 Q-4.4 -13.3 -3.4 -12.35 -2.5 -11.5 -2.2 -9.35 L-2.2 -1.35 1.35 -1.2 1.95 -1.15 M-9.85 2.45 L-9.8 3.6 M-2.2 -1.35 L-2.2 0.0" fill="none" stroke="#660000" stroke-linecap="round" stroke-linejoin="round" stroke-width="1.0"/>
    </g>
  </defs>
</svg>
